services/drupal/web/themes/epa_theme/images/_sprite-source-files/twitter.svg

<svg viewBox="0 0 512 512" xmlns="http://www.w3.org/2000/svg"><path d="m389.2 48h70.6l-154.2 176.2 181.4 239.8h-142l-111.3-145.4-127.2 145.4h-70.7l164.9-188.5-173.9-227.5h145.6l100.5 132.9zm-24.8 373.8h39.1l-252.4-333.8h-42z"/></svg>

<svg xmlns="http://www.w3.org/2000/svg" viewBox="0 0 512 512"><!--! Font Awesome Free 6.4.2 by @fontawesome - https://fontawesome.com License - https://fontawesome.com/license/free (Icons: CC BY 4.0, Fonts: SIL OFL 1.1, Code: MIT License) Copyright 2023 Fonticons, Inc. --><path d="M389.2 48h70.6L305.6 224.2 487 464H345L233.7 318.6 106.5 464H35.8L200.7 275.5 26.8 48H172.4L272.9 180.9 389.2 48zM364.4 421.8h39.1L151.1 88h-42L364.4 421.8z"/></svg>
